app/dist/common/images/consensus-cloud-solutions-inc.svg

<svg fill="none" height="18" viewBox="0 0 18 18" width="18" xmlns="http://www.w3.org/2000/svg"><path d="m0 0h18v18h-18z" fill="#f0f3fa"/><path clip-rule="evenodd" d="m3.13445 6.1723c-.7623.77429-1.13139 1.74785-1.13443 2.83204-.00608 2.23506 1.78738 3.99836 3.88735 3.99266 1.91957-.0052 4.03567-1.6871 4.16263-3.78014.0782-1.29412.6758-2.27471 2.1176-2.21686 1.1897.04774 1.825.75322 1.8324 2 .0071 1.1871-.5202 2-1.6372 2-1.2692 0-1.8232-.397-1.8397-.3781-.0091.0105-.1102.211-.2245.4455s-.2976.6991-.40715.8558l-.19935.2849.3863.2344c.2124.1288.591.3059.8412.3935.386.135.5538.1598 1.1087.1639 1.0702.0079 2.0491-.3753 2.8073-1.1539 1.224-1.2572 1.5042-3.01447.7399-4.6416-.6567-1.39819-2.0744-2.20644-3.5472-2.1956-2.13574.01574-3.86659 1.92443-4.0283 3.9912-.104 1.3289-.79509 2.0035-2.14106 2-1.21273-.0032-2.10894-.7343-2.10894-1.99566 0-1.27235.8779-2.00434 2.10894-2.00434.65877 0 1.10345.17169 1.60779.56693l.09467-.25468c.05209-.1401.23348-.74622.40184-1.02163l.30614-.50078-.21015-.13619c-.64322-.4168-1.26254-.61787-2.00128-.64987-1.1069-.04787-2.12784.36033-2.9235 1.16852z" fill="#202020" fill-rule="evenodd"/><circle cx="12" cy="9" fill="#e92c32" r="1"/></svg>

<!-- by TradingView --><svg width="18" height="18" viewBox="0 0 18 18" fill="none" xmlns="http://www.w3.org/2000/svg">
<rect width="18" height="18" fill="#F0F3FA"/>
<path fill-rule="evenodd" clip-rule="evenodd" d="M3.13445 6.1723C2.37215 6.94659 2.00306 7.92015 2.00002 9.00434C1.99394 11.2394 3.7874 13.0027 5.88737 12.997C7.80694 12.9918 9.92304 11.3099 10.05 9.21686C10.1282 7.92274 10.7258 6.94215 12.1676 7C13.3573 7.04774 13.9926 7.75322 14 9C14.0071 10.1871 13.4798 11 12.3628 11C11.0936 11 10.5396 10.603 10.5231 10.6219C10.514 10.6324 10.4129 10.8329 10.2986 11.0674C10.1843 11.3019 10.001 11.7665 9.89145 11.9232L9.6921 12.2081L10.0784 12.4425C10.2908 12.5713 10.6694 12.7484 10.9196 12.836C11.3056 12.971 11.4734 12.9958 12.0283 12.9999C13.0985 13.0078 14.0774 12.6246 14.8356 11.846C16.0596 10.5888 16.3398 8.83153 15.5755 7.2044C14.9188 5.80621 13.5011 4.99796 12.0283 5.0088C9.89256 5.02454 8.16171 6.93323 8 9C7.896 10.3289 7.20491 11.0035 5.85894 11C4.64621 10.9968 3.75 10.2657 3.75 9.00434C3.75 7.73199 4.6279 7 5.85894 7C6.51771 7 6.96239 7.17169 7.46673 7.56693L7.5614 7.31225C7.61349 7.17215 7.79488 6.56603 7.96324 6.29062L8.26938 5.78984L8.05923 5.65365C7.41601 5.23685 6.79669 5.03578 6.05795 5.00378C4.95105 4.95591 3.93011 5.36411 3.13445 6.1723Z" fill="#202020"/>
<circle cx="12" cy="9" r="1" fill="#E92C32"/>
</svg>
